!!!COM: Anon.
!!!OTL: Amei uma donzela
!!!OTL: Romanceiro Folclorico do Brasil
!!!CNT: Brasil
!!!OCY: Brasil
!!!ODT: <1971///
!!!PSR: Irmaos Vitale
!!!PSP: Sao Paulo, Brasil
!!!PDT: 1949///
!!!PPE: Rossini Tavares de Lima
!!!PPG: pages 66-68
!! Romance: Donzela
!! Place: Caxambu, Minas Gerais, Brasil
**kern
*clefG2
*k[b-e-a-]
*M3/4
*MM112
4G
=
4c
8c
8d
8e-
8f
=
4g
4g
4g
=
4a-
8a-
8a-
8cc
8a-
=
2g
8a-
8g
=
4f
4d
8g
8f
=
4e-
4c
8e-
8e-
=
4d
8Bn
8c
8d
8e-
=
2c
==
*-
